X: 1987
T: Wonky Clock
B: australian traditional tunes wiki
M:6/8
L:1/8
R: Jig
Q: 3/8=100
K:D
V:1 
"D"D3d2B|AFD FGA|D3d2B|AFD "A7"E3|
"D"D3d2B|AFD FGA|"G"Bcd "D"ABA|"A7"GFE "D"D2A||
"D" dcd B2A|"A/C#"dcd B2A|"Bm"dcd fed|"A7"cBc ABc|"G"dcd B2A|
"D/F#"dcdB2A|"Em"dcd fed|1"A7"cAB GFE:|2 "Last""A7"cBA GFE|"G"D6||
% abcbook-tune_id 6342d5be095f66d68f43351b


% abcbook-boost 0
% abcbook-tablature 
% abcbook-transpose 
% abcbook-lastupdated 1665324492612
% abcbook-soundfonts 
% abcbook-repeats 1
% NFF Book 2017
% nb. misnamed "Wonkey Clock" in printed NFF Book 2017

